svg/emoji_u1faa2.svg

<?xml version="1.0" encoding="UTF-8" standalone="no"?>
<!DOCTYPE svg PUBLIC "-//W3C//DTD SVG 1.1//EN" "http://www.w3.org/Graphics/SVG/1.1/DTD/svg11.dtd">
<svg width="100%" height="100%" viewBox="0 0 128 128" version="1.1" xmlns="http://www.w3.org/2000/svg" xmlns:xlink="http://www.w3.org/1999/xlink" xml:space="preserve" xmlns:serif="http://www.serif.com/" style="fill-rule:evenodd;clip-rule:evenodd;stroke-linejoin:round;stroke-miterlimit:2;">
    <g>
        <path d="M52.22,25.91L52.22,42.51C54.67,41.19 58.57,39.8 63.75,39.8C69.89,39.8 73.42,41.65 75.12,42.99L75.12,25.7C63.67,22.42 55.63,24.63 52.22,25.91Z" style="fill:rgb(230,86,25);fill-rule:nonzero;"/>
        <path d="M43.05,54.73C43.05,54.73 52.07,64.9 53.06,63.77C58.69,57.41 64.19,49.58 64.19,37.09C64.19,20.418 59.4,10.357 56.929,6.276C56.104,4.966 54.664,4.171 53.116,4.171C51.667,4.16 49.732,4.16 47.83,4.16C46.334,4.16 44.936,4.901 44.095,6.138C43.254,7.376 43.081,8.949 43.633,10.339C46.345,16.704 50,26.703 50,33.75C50,41.95 48.04,48.15 43.15,54.6C43.11,54.65 43.08,54.69 43.05,54.73Z" style="fill:rgb(64,192,231);fill-rule:nonzero;"/>
        <path d="M82.49,19.22L82.01,17.7C81.91,17.4 81.63,17.2 81.32,17.22L79.48,17.31C79.15,17.33 78.85,17.1 78.77,16.77L78.28,14.68C78.22,14.4 77.99,14.19 77.7,14.15L75.92,13.89C75.56,13.84 75.3,13.51 75.33,13.15C75.33,13.15 75.33,13.15 75.33,13.149C75.366,12.69 75.099,12.261 74.671,12.09C74.243,11.919 73.754,12.047 73.464,12.405C64.513,23.409 64.2,34.508 64.2,37.1C64.2,49.59 69.7,57.41 75.33,63.78C76.33,64.91 85.34,54.74 85.34,54.74C85.31,54.7 85.28,54.66 85.25,54.62C81.55,49.74 78.76,45.06 78.76,39.44C78.76,30.804 82.448,24.496 84.916,21.242C85.205,20.901 85.241,20.412 85.005,20.033C84.768,19.654 84.313,19.471 83.88,19.581C83.534,19.643 83.31,19.7 83.31,19.7C82.97,19.77 82.6,19.57 82.49,19.22Z" style="fill:rgb(64,192,231);fill-rule:nonzero;"/>
        <g>
            <path d="M63.81,91.61L63.81,91.71C63.81,107.981 68.377,117.614 70.897,121.69C71.807,123.116 73.381,123.979 75.072,123.979C76.304,123.99 77.853,123.99 79.426,123.99C81.071,123.99 82.609,123.175 83.533,121.815C84.457,120.454 84.647,118.724 84.041,117.195C81.36,111.01 78.01,101.797 78.01,95.05C78.01,93.86 78.06,92.72 78.14,91.61L63.81,91.61Z" style="fill:rgb(237,108,48);fill-rule:nonzero;"/>
            <path d="M42.56,107.89L40.38,109.69C40.03,109.98 40.1,110.54 40.52,110.72C40.87,110.87 41.25,111.02 41.53,111.09C42.2,111.26 42.59,111.77 42.64,112L43.05,113.87C43.13,114.25 43.45,114.53 43.83,114.57L45.62,114.75C45.96,114.78 46.25,115.01 46.37,115.33L46.93,116.87C47.07,117.26 47.46,117.5 47.86,117.45L49.47,117.28C49.71,117.25 49.95,117.33 50.14,117.48C50.14,117.48 50.46,118.47 51.11,118.78C51.76,119.09 52.41,118.78 52.41,118.78C63.44,107.06 63.8,94.5 63.8,91.71L63.8,91.62L49.15,91.62C48.55,100.2 44.67,105.9 42.56,107.89Z" style="fill:rgb(237,108,48);fill-rule:nonzero;"/>
        </g>
        <path d="M78.14,91.57C78.09,91.58 78.02,91.6 77.96,91.62L78.14,91.62L78.14,91.57Z" style="fill:url(#_Radial1);fill-rule:nonzero;"/>
        <path d="M88.88,58.52L78.11,66.13C80.37,74.71 67.84,86.86 63.75,86.86C59.66,86.86 46.51,77.13 49.38,66.17L38.94,59.64C38.94,59.64 27.65,73.07 38.11,88.3C43.11,95.58 51.73,99.39 63.75,99.39C75.77,99.39 83.66,95 89.4,88.29C100.78,74.98 88.88,58.52 88.88,58.52Z" style="fill:rgb(64,192,231);fill-rule:nonzero;"/>
        <path d="M80.94,79.43C80.82,79.55 75.06,86.1 64.05,86.85C65.7,68.73 83.01,59.62 79.75,45.12C79.75,45.12 78.69,42.55 78.77,39.42C78.95,31.92 80.75,29 80.75,29C99.86,37.76 92.93,58.33 91.27,62.29C89.95,65.4 84.19,73.34 80.94,79.43Z" style="fill:rgb(237,108,48);fill-rule:nonzero;"/>
        <path d="M47.09,79.42C47.21,79.54 52.97,86.09 63.98,86.84C62.33,68.72 44.39,59.48 48.27,45.13C48.27,45.13 49.72,41.19 49.98,37.52C50.45,30.77 49.01,26.29 49.01,26.29C27.85,34.59 35.05,58.21 36.76,62.27C38.08,65.39 43.84,73.32 47.09,79.42Z" style="fill:rgb(237,108,48);fill-rule:nonzero;"/>
        <g>
            <path d="M82.18,25.33C80.93,25.04 78.35,24.21 75.11,21.93C72.16,19.85 70.84,17.95 70.26,16.71C70.26,16.71 70.01,15.72 70.7,14.73C71.29,13.9 72.17,13.91 72.17,13.91C72.2,14.02 73.27,16.97 76.83,19.46C80.65,22.14 83.24,22.47 83.82,22.58C83.82,22.58 84.2,23.02 83.58,24.3C83.14,25.24 82.18,25.33 82.18,25.33Z" style="fill:rgb(237,108,48);fill-rule:nonzero;"/>
        </g>
        <g>
            <path d="M56.14,114.27C54.96,113.97 52.37,113.15 49.13,111.12C46.03,109.17 44.5,107.48 43.8,106.5C43.8,106.5 43.63,105.3 44.17,104.67C44.89,103.84 45.57,103.84 45.57,103.84C45.57,103.84 46.92,106.19 50.73,108.58C54.53,110.97 57.32,111.5 57.86,111.62C57.86,111.62 58.09,112.26 57.6,113.29C57.28,113.97 56.55,114.38 56.14,114.27Z" style="fill:rgb(64,192,231);fill-rule:nonzero;"/>
        </g>
    </g>
    <defs>
        <radialGradient id="_Radial1" cx="0" cy="0" r="1" gradientUnits="userSpaceOnUse" gradientTransform="matrix(0.188666,-0.0538373,0.0287825,0.100847,78.0517,91.6205)"><stop offset="0" style="stop-color:rgb(176,36,39);stop-opacity:0"/><stop offset="0.44" style="stop-color:rgb(176,36,39);stop-opacity:0"/><stop offset="1" style="stop-color:rgb(183,28,28);stop-opacity:1"/></radialGradient>
    </defs>
</svg>

<?xml version="1.0" encoding="utf-8"?>
<!-- Generator: Adobe Illustrator 24.0.3, SVG Export Plug-In . SVG Version: 6.00 Build 0)  -->
<svg version="1.1" id="Layer_9" xmlns="http://www.w3.org/2000/svg" xmlns:xlink="http://www.w3.org/1999/xlink" x="0" y="0"
	 viewBox="0 0 128 128" style="enable-background:new 0 0 128 128;" xml:space="preserve">
<g>
	<path style="fill:#B71C1C;" d="M52.22,25.91v16.6c2.45-1.32,6.35-2.71,11.53-2.71c6.14,0,9.67,1.85,11.37,3.19V25.7
		C63.67,22.42,55.63,24.63,52.22,25.91z"/>
	<path style="fill:#03A9F4;" d="M75.57,10.02l1.55,1.3c0.19,0.16,0.43,0.23,0.67,0.2l1.61-0.17c0.41-0.04,0.79,0.2,0.93,0.58
		l0.56,1.54c0.12,0.32,0.41,0.55,0.75,0.58l1.79,0.18c0.38,0.04,0.7,0.32,0.78,0.7l0.41,1.87c0.05,0.23,0.19,0.43,0.39,0.56
		l2.09,1.36l-4.23,2.88c0,0-9.67-6.09-9.63-6.42c0.05-0.33,0.84-2.51,0.84-2.51L75.57,10.02z"/>
	<path style="fill:#81D4FA;" d="M43.05,54.73c0,0,9.02,10.17,10.01,9.04c5.63-6.36,11.13-14.19,11.13-26.68
		c0-22.47-8.7-32.93-8.7-32.93H40.9c0,0,9.1,18.47,9.1,29.59c0,8.2-1.96,14.4-6.85,20.85C43.11,54.65,43.08,54.69,43.05,54.73z"/>
	
		<radialGradient id="SVGID_1_" cx="54.1933" cy="49.4652" r="20.0236" gradientTransform="matrix(0.7745 0.6325 -0.3115 0.3814 27.6252 -3.6789)" gradientUnits="userSpaceOnUse">
		<stop  offset="0.2146" style="stop-color:#81D4FA;stop-opacity:0"/>
		<stop  offset="1" style="stop-color:#0288D1"/>
	</radialGradient>
	<path style="opacity:0.77;fill:url(#SVGID_1_);" d="M48.28,45.13c-0.7,2.1-1.64,4.12-2.85,6.12c0.29,3.99,1.77,7.2,3.45,9.61
		c1.97,1.9,3.77,3.39,4.19,2.92c2.6-2.93,5.16-6.18,7.17-10.05C54.91,52.08,50.39,48.25,48.28,45.13z"/>
	<path style="fill:#81D4FA;" d="M82.49,19.22l-0.48-1.52c-0.1-0.3-0.38-0.5-0.69-0.48l-1.84,0.09c-0.33,0.02-0.63-0.21-0.71-0.54
		l-0.49-2.09c-0.06-0.28-0.29-0.49-0.58-0.53l-1.78-0.26c-0.36-0.05-0.62-0.38-0.59-0.74l0.24-3.13
		C64.56,21.75,64.2,34.32,64.2,37.1c0,12.49,5.5,20.31,11.13,26.68c1,1.13,10.01-9.04,10.01-9.04c-0.03-0.04-0.06-0.08-0.09-0.12
		c-3.7-4.88-6.49-9.56-6.49-15.18c0-12.98,8.33-20.7,8.33-20.7l-3.78,0.96C82.97,19.77,82.6,19.57,82.49,19.22z"/>
	
		<radialGradient id="SVGID_2_" cx="74.3776" cy="50.6358" r="19.1191" gradientTransform="matrix(0.7874 -0.6165 0.3036 0.3877 0.4448 76.8584)" gradientUnits="userSpaceOnUse">
		<stop  offset="0.2146" style="stop-color:#81D4FA;stop-opacity:0"/>
		<stop  offset="1" style="stop-color:#0288D1"/>
	</radialGradient>
	<path style="opacity:0.77;fill:url(#SVGID_2_);" d="M85.35,54.73c-0.03-0.04-0.06-0.08-0.09-0.12c-2.01-2.65-3.75-5.25-4.92-7.97
		c-2.35,2.92-6.7,6.26-11.78,7.83c1.95,3.55,4.35,6.56,6.78,9.31C76.33,64.9,85.35,54.73,85.35,54.73z"/>
	<g>
		<path style="fill:#EF5350;" d="M63.81,91.62c0,0.03,0,0.06,0,0.09c0,22.47,8.71,32.28,8.71,32.28l14.59,0c0,0-9.1-17.82-9.1-28.94
			c0-1.19,0.05-2.33,0.13-3.44H63.81z"/>
		<path style="fill:#EF5350;" d="M42.56,107.89l-2.18,1.8c-0.35,0.29-0.28,0.85,0.14,1.03c0.35,0.15,0.73,0.3,1.01,0.37
			c0.67,0.17,1.06,0.68,1.11,0.91l0.41,1.87c0.08,0.38,0.4,0.66,0.78,0.7l1.79,0.18c0.34,0.03,0.63,0.26,0.75,0.58l0.56,1.54
			c0.14,0.39,0.53,0.63,0.93,0.58l1.61-0.17c0.24-0.03,0.48,0.05,0.67,0.2c0,0,0.32,0.99,0.97,1.3c0.65,0.31,1.3,0,1.3,0
			C63.44,107.06,63.8,94.5,63.8,91.71c0-0.03,0-0.06,0-0.09H49.15C48.55,100.2,44.67,105.9,42.56,107.89z"/>
	</g>
	<g style="opacity:0.6;">
		<path style="fill:#B71C1C;" d="M62.03,101.98c-5,2.46-10.75,3.13-16.18,1.9c-0.09-0.02-0.17-0.04-0.26-0.06
			c-0.58,1.02-1.17,1.9-1.72,2.61c0.44,0.16,0.89,0.29,1.31,0.38c1.99,0.45,4.02,0.67,6.04,0.67c3.29,0,6.57-0.6,9.67-1.76
			c0.5-1.21,0.91-2.39,1.25-3.51L62.03,101.98z"/>
	</g>
	<g style="opacity:0.6;">
		<path style="fill:#B71C1C;" d="M78.02,94.28c0.02-0.91,0.05-1.8,0.12-2.66h-1.57c-4.99,3.66-8.99,8.55-11.51,14.03
			c0.36,1.88,0.77,3.61,1.23,5.19C68.24,104.38,72.43,98.48,78.02,94.28z"/>
	</g>
	<g>
		<path style="fill:#C62828;" d="M73.18,124c1.79-5.06,4.54-9.76,8.09-13.78c-0.37-1.07-0.73-2.15-1.07-3.25
			c-4.03,4.23-7.22,9.23-9.35,14.66c0.98,1.6,1.66,2.37,1.66,2.37H73.18z"/>
	</g>
	
		<radialGradient id="SVGID_3_" cx="71.369" cy="105.9606" r="16.2429" gradientTransform="matrix(0.9616 -0.2744 0.1467 0.514 -12.8011 71.0823)" gradientUnits="userSpaceOnUse">
		<stop  offset="0.4425" style="stop-color:#B02427;stop-opacity:0"/>
		<stop  offset="1" style="stop-color:#B71C1C"/>
	</radialGradient>
	<path style="fill:url(#SVGID_3_);" d="M77.96,91.62c-2.65,0.71-11.27,3.02-14.07,3.76c0.19,4.47,0.73,8.4,1.45,11.81
		c3.16-2.66,8.85-5.39,13.51-5.28c-0.52-2.42-0.84-4.76-0.84-6.85c0-1.19,0.05-2.33,0.13-3.44H77.96z"/>
	
		<radialGradient id="SVGID_4_" cx="78.0496" cy="91.619" r="0.1962" gradientTransform="matrix(0.9616 -0.2744 0.1467 0.514 -10.4413 65.9451)" gradientUnits="userSpaceOnUse">
		<stop  offset="0.4425" style="stop-color:#B02427;stop-opacity:0"/>
		<stop  offset="1" style="stop-color:#B71C1C"/>
	</radialGradient>
	<path style="fill:url(#SVGID_4_);" d="M78.14,91.57c-0.05,0.01-0.12,0.03-0.18,0.05h0.18C78.14,91.61,78.14,91.59,78.14,91.57z"/>
	
		<radialGradient id="SVGID_5_" cx="53.4236" cy="105.6283" r="18.0204" gradientTransform="matrix(0.9302 0.3671 -0.1962 0.4972 24.4584 33.4994)" gradientUnits="userSpaceOnUse">
		<stop  offset="0.4425" style="stop-color:#B02427;stop-opacity:0"/>
		<stop  offset="1" style="stop-color:#B71C1C"/>
	</radialGradient>
	<path style="fill:url(#SVGID_5_);" d="M60.64,106.32c1.77-4.14,2.55-7.85,2.89-10.57c-0.05-0.11-0.09-0.22-0.14-0.33
		c-2.59-0.69-11.51-3.07-14.25-3.8c-0.23,3.29-0.94,6.16-1.85,8.56c-0.2,1.12-0.35,1.84-0.35,1.84
		C51.3,101.35,57.02,103.72,60.64,106.32z"/>
	<path style="fill:#81D4FA;" d="M88.88,58.52l-10.77,7.61c2.26,8.58-10.27,20.73-14.36,20.73s-17.24-9.73-14.37-20.69l-10.44-6.53
		c0,0-11.29,13.43-0.83,28.66c5,7.28,13.62,11.09,25.64,11.09S83.66,95,89.4,88.29C100.78,74.98,88.88,58.52,88.88,58.52z"/>
	
		<radialGradient id="SVGID_6_" cx="37.7494" cy="82.0463" r="21.9895" gradientTransform="matrix(0.9112 0.412 -0.3008 0.6652 28.034 11.9153)" gradientUnits="userSpaceOnUse">
		<stop  offset="0.3026" style="stop-color:#81D4FA;stop-opacity:0"/>
		<stop  offset="1" style="stop-color:#0288D1"/>
	</radialGradient>
	<path style="opacity:0.77;fill:url(#SVGID_6_);" d="M48.31,80.84c-0.56-1.16,0.76-4.39,0.44-5.74
		c-1.89-8.07-7.99-11.91-11.23-13.42c-1.61,2.61-3.98,7.52-3.84,13.58C40.36,75.32,46.01,78.04,48.31,80.84z"/>
	<g style="opacity:0.47;">
		<g>
			<path style="fill:#0277BD;" d="M51.08,80.95l-1.66-2.5c-5.2,3.47-12.05,2.42-15.24,0.93c0.25,1.18,0.61,2.39,1.1,3.62
				c1.71,0.49,3.69,0.8,5.76,0.8C44.4,83.79,48,83,51.08,80.95z"/>
		</g>
		<g>
			<path style="fill:#0277BD;" d="M66.6,85.79c0.03-0.18,0.07-0.36,0.1-0.55l-2.97-0.42c-0.1,0.7-0.28,1.36-0.51,1.98
				c0.19,0.03,0.37,0.05,0.53,0.05C64.48,86.86,65.47,86.47,66.6,85.79z"/>
			<path style="fill:#0277BD;" d="M66.6,85.79c-1.13,0.68-2.12,1.07-2.85,1.07c-0.16,0-0.34-0.02-0.53-0.05
				c-2.2,6-9.94,9-14.61,9.89c1.61,0.68,3.34,1.23,5.19,1.65C59.29,96.37,65.37,92.45,66.6,85.79z"/>
		</g>
		<g>
			<path style="fill:#0277BD;" d="M78.7,78.61l-1.98,2.26c1.64,1.44,2.6,4.29,2.5,7.45c-0.1,3.47-1.36,6.73-3.52,9.31
				c1.72-0.56,3.32-1.25,4.81-2.05c1.03-2.21,1.63-4.64,1.71-7.16C82.34,84.31,81.03,80.65,78.7,78.61z"/>
		</g>
		<g>
			<path style="fill:#0277BD;" d="M86.38,67.14l-1.75,2.44c1.94,1.4,7.7,5.59,5.43,17.88c1.72-2.22,2.85-4.51,3.5-6.8
				C93.21,74.87,90.81,70.34,86.38,67.14z"/>
		</g>
		<g>
			<path style="fill:#0277BD;" d="M83.12,55.09l-0.08-3c-7.41,0.2-14.66-2.85-17.32-4.33c0.43,1.42,0.94,2.76,1.51,4.03
				c3.75,1.58,9.38,3.31,15.15,3.31C82.63,55.1,82.88,55.1,83.12,55.09z"/>
		</g>
		<g>
			<path style="fill:#0277BD;" d="M66.86,23.7c-0.56,1.43-1,2.79-1.35,4.07c3.05,5.4,8.23,10.33,13.26,11.53
				c0-1.05,0.08-2.05,0.18-3.03C74.22,34.87,69.06,29.11,66.86,23.7z"/>
		</g>
		<g>
			<path style="fill:#0277BD;" d="M49.11,42.3c-0.26,1.12-0.58,2.21-0.96,3.28c2.61,2.8,6.17,8.05,7.73,14.83
				c0.78-0.99,1.54-2.03,2.26-3.11C56.02,50.47,52.11,45,49.11,42.3z"/>
		</g>
		<g>
			<path style="fill:#0277BD;" d="M63.53,44.31l0.16-0.91c0.28-1.72,0.45-3.55,0.49-5.49c-4.06-10.14-11.01-13.32-15.98-14.87
				c0.33,1.16,0.62,2.33,0.88,3.47C54.06,28.4,60.7,33.06,63.53,44.31z"/>
		</g>
		<g>
			<path style="fill:#0277BD;" d="M58.81,9.83c-4.56-2.92-9.48-4.74-13.39-5.66H40.9c0,0,0.44,0.89,1.12,2.4
				c4.18,0.62,12.39,2.98,18.88,8.52C60.21,13.04,59.49,11.29,58.81,9.83z"/>
		</g>
	</g>
	
		<radialGradient id="SVGID_7_" cx="54.1781" cy="82.0463" r="21.9895" gradientTransform="matrix(-0.9112 0.412 0.3008 0.6652 114.9424 5.146)" gradientUnits="userSpaceOnUse">
		<stop  offset="0.3026" style="stop-color:#81D4FA;stop-opacity:0"/>
		<stop  offset="1" style="stop-color:#0288D1"/>
	</radialGradient>
	<path style="opacity:0.77;fill:url(#SVGID_7_);" d="M79.7,80.84c0.56-1.16-0.76-4.39-0.44-5.74c1.89-8.07,7.99-11.91,11.23-13.42
		c1.61,2.61,3.98,7.52,3.84,13.58C87.65,75.32,81.99,78.04,79.7,80.84z"/>
	<path style="fill:#EF5350;" d="M80.94,79.43c-0.12,0.12-5.88,6.67-16.89,7.42c1.65-18.12,18.96-27.23,15.7-41.73
		c0,0-1.06-2.57-0.98-5.7C78.95,31.92,80.75,29,80.75,29c19.11,8.76,12.18,29.33,10.52,33.29C89.95,65.4,84.19,73.34,80.94,79.43z"
		/>
	<path style="fill:#EF5350;" d="M47.09,79.42c0.12,0.12,5.88,6.67,16.89,7.42c-1.65-18.12-19.59-27.36-15.71-41.71
		c0,0,1.45-3.94,1.71-7.61c0.47-6.75-0.97-11.23-0.97-11.23c-21.16,8.3-13.96,31.92-12.25,35.98
		C38.08,65.39,43.84,73.32,47.09,79.42z"/>
	
		<radialGradient id="SVGID_8_" cx="85.2393" cy="39.9568" r="17.7204" gradientTransform="matrix(0.7532 -0.6578 0.4208 0.4819 4.2209 76.7701)" gradientUnits="userSpaceOnUse">
		<stop  offset="0.3026" style="stop-color:#B02427;stop-opacity:0"/>
		<stop  offset="0.8242" style="stop-color:#B71C1C"/>
	</radialGradient>
	<path style="fill:url(#SVGID_8_);" d="M90.11,36.48c-2.02-2.88-5.01-5.49-9.36-7.48c0,0-1.79,2.93-1.98,10.43
		c-0.08,3.14,0.98,5.7,0.98,5.7c0.1,0.43,0.17,0.85,0.23,1.27C81.31,42.95,83.62,38.41,90.11,36.48z"/>
	
		<radialGradient id="SVGID_9_" cx="43.0827" cy="40.1053" r="20.9892" gradientTransform="matrix(0.71 0.7042 -0.4505 0.4542 30.565 -8.4515)" gradientUnits="userSpaceOnUse">
		<stop  offset="0.3026" style="stop-color:#B02427;stop-opacity:0"/>
		<stop  offset="0.8242" style="stop-color:#B71C1C"/>
	</radialGradient>
	<path style="fill:url(#SVGID_9_);" d="M36.91,36.6c6.26,2.02,9.64,7.24,10.95,10.62c0-0.01,0.01-0.02,0.02-0.02
		c0.09-0.68,0.21-1.37,0.4-2.07c0,0,1.45-3.94,1.71-7.61c0.47-6.75-0.97-11.23-0.97-11.23C42.84,28.71,39.1,32.44,36.91,36.6z"/>
	<g style="opacity:0.6;">
		<g>
			<path style="fill:#B71C1C;" d="M38.43,42.83c2.9-2.35,6.63-2.99,11.05-1.94c0.2-0.94,0.38-1.97,0.47-2.98
				c-7.06-1.59-11.59,0.86-14.18,3.26c-0.3,0.27-0.58,0.56-0.85,0.85c-0.52,2.23-0.72,4.49-0.71,6.64
				C35.04,46.71,36.38,44.48,38.43,42.83z"/>
		</g>
		<g>
			<path style="fill:#B71C1C;" d="M49.33,56.33c-0.42-0.97-0.76-1.96-1.02-2.95c-2.95,1.95-6.93,5.98-8.62,13.97
				c0.75,1.19,1.58,2.48,2.43,3.81C43.07,62.64,46.57,58.39,49.33,56.33z"/>
		</g>
		<g>
			<path style="fill:#B71C1C;" d="M59.09,72.49c-0.52-0.92-1.07-1.82-1.62-2.7c-2.52,2.91-5.36,7.56-7.41,12.17
				c0.72,0.52,1.56,1.06,2.55,1.61C54.46,79.27,57,75.12,59.09,72.49z"/>
		</g>
		<g>
			<path style="fill:#B71C1C;" d="M88.04,33.99c-0.73-0.74-1.54-1.46-2.44-2.13c-1.31,4.61-4.06,7.91-6.64,10.22
				c0.28,1.81,0.8,3.05,0.8,3.05c0.01,0.06,0.02,0.11,0.03,0.17C82.68,42.93,86.16,39.27,88.04,33.99z"/>
		</g>
		<g>
			<path style="fill:#B71C1C;" d="M93.83,48.31c-3.44,6.02-11.62,9.33-16.78,10.88c-0.67,1.23-1.41,2.46-2.2,3.71
				c3.94-0.92,13.03-3.58,18.71-9.35C93.78,51.91,93.9,50.14,93.83,48.31z"/>
		</g>
		<g>
			<path style="fill:#B71C1C;" d="M86.11,70.87c-0.05,0-0.1,0-0.14,0c-6.39,0-12.8,1.54-18.55,4.37c-0.68,1.42-1.3,2.89-1.82,4.43
				c5.56-3.43,12.03-5.44,18.58-5.74"/>
		</g>
	</g>
	<g>
		<path style="fill:#FF7B78;" d="M82.18,25.33c-1.25-0.29-3.83-1.12-7.07-3.4c-2.95-2.08-4.27-3.98-4.85-5.22
			c0,0-0.25-0.99,0.44-1.98c0.59-0.83,1.47-0.82,1.47-0.82c0.03,0.11,1.1,3.06,4.66,5.55c3.82,2.68,6.41,3.01,6.99,3.12
			c0,0,0.38,0.44-0.24,1.72C83.14,25.24,82.18,25.33,82.18,25.33z"/>
	</g>
	<g style="opacity:0.29;">
		<g>
			<path style="fill:#212121;" d="M83.92,23.16c0,0-2.94-0.2-7.38-3.27c-3.85-2.67-4.85-5.83-4.86-5.85l0.62-0.11l0.25-0.33
				c0.01,0.03,1.12,3.06,4.56,5.48c3.45,2.43,7.15,3.06,7.15,3.06l-0.38,0.59L83.92,23.16z"/>
		</g>
	</g>
	<g>
		<path style="fill:#81D4FA;" d="M56.14,114.27c-1.18-0.3-3.77-1.12-7.01-3.15c-3.1-1.95-4.63-3.64-5.33-4.62
			c0,0-0.17-1.2,0.37-1.83c0.72-0.83,1.4-0.83,1.4-0.83s1.35,2.35,5.16,4.74c3.8,2.39,6.59,2.92,7.13,3.04c0,0,0.23,0.64-0.26,1.67
			C57.28,113.97,56.55,114.38,56.14,114.27z"/>
	</g>
	<g style="opacity:0.3;">
		<g>
			<path style="fill:#212121;" d="M57.91,112.23c0,0-3.04-0.28-7.71-2.99c-4.05-2.35-5.2-5.2-5.21-5.23l0.6-0.2l0.31-0.56
				c0.01,0.03,1.38,2.3,4.94,4.56c3.7,2.34,7.47,3.12,7.47,3.12l-0.46,0.69L57.91,112.23z"/>
		</g>
	</g>
</g>
</svg>
